X: 14256
T: Futterat With The Grey Tail, The
R: strathspey
M: 4/4
K: Adorian
A<ee>d e<AA>B|d>cB>^A B<EE>G|D>EGA B>^AB<g|(3GGG BG c2 B>^G|
A<ee>^d e<A A2|d>cB>^A B<EE>G|D>EGA B>^AB<g|G2 BG c>GB>^G||
A<aa>^g a<ee>f|g>ag>e d/c/B/A/ G>g|e>^de>g a>ba<g|e>gd>B c2 (3BA^G|
A<aa>^g a<e e2|g>a (3gfe d<B G2|e>^de<g a2 a<g|e>g (3dcB c2||

